src/assets/footer/Dis.svg

<svg fill="none" height="37" viewBox="0 0 36 37" width="36" xmlns="http://www.w3.org/2000/svg"><circle cx="18" cy="18.7598" r="17.25" stroke="#000" stroke-opacity=".1" stroke-width="1.5"/><path clip-rule="evenodd" d="m22.0894 24.9809s-.5296-.6325-.9709-1.1915c1.927-.5443 2.6626-1.7506 2.6626-1.7506-.6032.3972-1.1769.6767-1.6917.868-.7356.3089-1.4417.5148-2.1331.6325-1.4122.2648-2.7067.1912-3.81-.0147-.8385-.1618-1.5593-.3972-2.1624-.6326-.3384-.1323-.7061-.2942-1.0739-.5001-.022-.0147-.0441-.0258-.0662-.0368-.022-.011-.0441-.022-.0662-.0368-.0294-.0147-.0441-.0294-.0588-.0441-.2648-.1471-.4119-.2501-.4119-.2501s.7061 1.1769 2.5743 1.7359c-.4413.559-.9856 1.2209-.9856 1.2209-3.251-.1029-4.48666-2.236-4.48666-2.236 0-4.7367 2.11826-8.5762 2.11826-8.5762 2.1183-1.5887 4.1337-1.5446 4.1337-1.5446l.1471.1766c-2.6479.7649-3.8689 1.927-3.8689 1.927s.3237-.1765.868-.4266c1.574-.6914 2.8244-.8826 3.3392-.9267l.033-.0056c.0742-.0126.1401-.0238.2171-.0238.8973-.1177 1.9124-.1471 2.9715-.0295 1.3975.1619 2.898.5737 4.4279 1.4122 0 0-1.1622-1.1032-3.6629-1.8682l.2059-.2354s2.0153-.0441 4.1336 1.5446c0 0 2.1184 3.8395 2.1184 8.5762 0 0-1.2504 2.1331-4.5014 2.236zm-5.1634-5.3768c0 .8897-.7212 1.6108-1.6108 1.6108s-1.6108-.7211-1.6108-1.6108c0-.8896.7212-1.6108 1.6108-1.6108s1.6108.7212 1.6108 1.6108zm3.7586 1.6105c.8896 0 1.6108-.7212 1.6108-1.6108s-.7212-1.6108-1.6108-1.6108-1.6108.7212-1.6108 1.6108.7212 1.6108 1.6108 1.6108z" fill="#000" fill-opacity=".5" fill-rule="evenodd"/></svg>

<svg width="36" height="37" viewBox="0 0 36 37" fill="none" xmlns="http://www.w3.org/2000/svg">
<circle cx="18" cy="18.7598" r="17.25" stroke="black" stroke-opacity="0.1" stroke-width="1.5"/>
<path fill-rule="evenodd" clip-rule="evenodd" d="M22.0894 24.9809C22.0894 24.9809 21.5598 24.3484 21.1185 23.7894C23.0455 23.2451 23.7811 22.0388 23.7811 22.0388C23.1779 22.436 22.6042 22.7155 22.0894 22.9068C21.3538 23.2157 20.6477 23.4216 19.9563 23.5393C18.5441 23.8041 17.2496 23.7305 16.1463 23.5246C15.3078 23.3628 14.587 23.1274 13.9839 22.892C13.6455 22.7597 13.2778 22.5978 12.91 22.3919C12.888 22.3772 12.8659 22.3661 12.8438 22.3551C12.8218 22.3441 12.7997 22.3331 12.7776 22.3183C12.7482 22.3036 12.7335 22.2889 12.7188 22.2742C12.454 22.1271 12.3069 22.0241 12.3069 22.0241C12.3069 22.0241 13.013 23.201 14.8812 23.76C14.4399 24.319 13.8956 24.9809 13.8956 24.9809C10.6446 24.878 9.40894 22.7449 9.40894 22.7449C9.40894 18.0082 11.5272 14.1687 11.5272 14.1687C13.6455 12.58 15.6609 12.6241 15.6609 12.6241L15.808 12.8007C13.1601 13.5656 11.9391 14.7277 11.9391 14.7277C11.9391 14.7277 12.2628 14.5512 12.8071 14.3011C14.3811 13.6097 15.6315 13.4185 16.1463 13.3744L16.1793 13.3688C16.2535 13.3562 16.3194 13.345 16.3964 13.345C17.2937 13.2273 18.3088 13.1979 19.3679 13.3155C20.7654 13.4774 22.2659 13.8892 23.7958 14.7277C23.7958 14.7277 22.6336 13.6245 20.1329 12.8595L20.3388 12.6241C20.3388 12.6241 22.3541 12.58 24.4724 14.1687C24.4724 14.1687 26.5908 18.0082 26.5908 22.7449C26.5908 22.7449 25.3404 24.878 22.0894 24.9809ZM16.926 19.6041C16.926 20.4938 16.2048 21.2149 15.3152 21.2149C14.4256 21.2149 13.7044 20.4938 13.7044 19.6041C13.7044 18.7145 14.4256 17.9933 15.3152 17.9933C16.2048 17.9933 16.926 18.7145 16.926 19.6041ZM20.6846 21.2146C21.5742 21.2146 22.2954 20.4934 22.2954 19.6038C22.2954 18.7142 21.5742 17.993 20.6846 17.993C19.795 17.993 19.0738 18.7142 19.0738 19.6038C19.0738 20.4934 19.795 21.2146 20.6846 21.2146Z" fill="black" fill-opacity="0.5"/>
</svg>
